X:1
T:Psalm
T:Knut Håkanson (1887-1929)
T:Den signade dag
T:Op 32 nr 9
%%score { ( 1 2 ) | ( 3 4 ) }
L:1/8
Q:1/4=120
M:3/2
K:Dmin
V:1 treble nm="Vocals"
V:2 treble 
V:3 bass 
V:4 bass 
V:1
 (d2 (3ABc) |"^Instrument change" d4 d4 (c2 d2) | %2
"^Instrument change" (B4-"^Instrument change" (3B2 d2 c2) (A2 B2) | %3
"^Instrument change" G4"^Instrument change" G4 ^F4 | %4
"^Instrument change" !fermata!G4"^Instrument change" z4 d4 | %5
"^Instrument change" c4"^Instrument change" d4 (c2 A2) | %6
"^Instrument change" F4"^Instrument change" G4 A4 | %7
"^Instrument change" (B2"^Instrument change" A2) (G2 !fermata!F2) (3(A2 B2 c2) | %8
"^Instrument change" d4"^Instrument change" d4 (c2 d2) | %9
"^Instrument change" (B4-"^Instrument change" (3B2 d2 c2) (A2 B2) | %10
"^Instrument change" G4"^Instrument change" G4 ^F4 | %11
"^Instrument change" !fermata!G4"^Instrument change" z4 d4 | %12
"^Instrument change" c4"^Instrument change" d4 (c2 A2) | %13
"^Instrument change" F4"^Instrument change" G4 (F2 E2) | %14
"^Instrument change" D4 (DE !fermata!F2) (E2 C2) | %15
"^Instrument change" F4"^Instrument change" (G2 F2) D4 | %16
"^Instrument change" (G2"^Instrument change" A2) B4 A4 | %17
"^Instrument change" (B2"^Instrument change" c2) d4 (c3 ^F) | %18
"^Instrument change" !fermata!G4"^Instrument change" z2 (^FG E2 G2) | %19
"^Instrument change" (!courtesy!=F2"^Instrument change" E2) D4 C4 | %20
"^Instrument change" F4"^Instrument change" (G2 F2) D4 |"^Instrument change" _E12 | %22
"^Instrument change" !fermata!D4"^Instrument change" z4 z4 |] %23
V:2
 ^F4 | G4 G4 D4 | D8 (D2 C2) | B,4 _E4 D4 | !fermata!D4 z4 !courtesy!=F4 | F4 F4 E4 | F4 F4 E4 | %7
w: 1.Den|sig- na- de|dag som *|vi nu här|se Av|him- me- len|till oss ned-|
w: 2.Den|sig- na- de|dag, den *|sig- na- de|tid Var|mor- gon jag|mån- de be-|
w: 6.Ack,|lå- tom oss|lo- va och|bed- ja vår|Gud, När|stun- der- na|väx- la och|
 F4 (E2 !fermata!F2) D4 | G4 D4 D4 | D4 _E4 E4 | D4 (B,2 C2) D4 | !fermata!D4 z4 F4 | %12
w: kom- ma, * Han|bli- ve oss|säll, * han|lå- te * sig|te Oss|
w: tän- ka, * Då|nå- de- nes|sol * så|här- lig * och|blid Rann|
w: skri- da, * Så|sko- le vi|stär- kas att|hål- la * hans|bud Och|
 F4 F4 (G2 E2) | F4 C4 C4 | D2"^Instrument change" C2 (B,2 !fermata!A,2) C4 | D4 D4 D4 | %16
w: al- la till *|gläd- je och|from- * ma! * Ja,|Her- ren den|
w: upp för all *|värl- den att|blän- * ka * Och|her- dar- ne|
w: va- ka och *|tå- li- gen|li- * da. * Ja,|lå- tom oss|
 _E4 F4 F4 | F4 F4 D4 | !fermata!D4 z4 E4 | C4 B,4 G,4 | D4 D4 D4 | %21
w: högs- te oss|al- la i|dag För|syn- der och|sor- ger be-|
w: hör- de Guds|äng- lar i|skyn, Som|sjön- go, att|da- gen var|
w: ver- ka med|all- var och|flit, Så|län- ge oss|da- gen för-|
 (D4"^Instrument change" C4 B,4) | !fermata!A,4 z4 z4 |] %23
w: va- * *|re!|
w: kom- * *||
w: un- * *|nas.|
V:3
 A,4 | B,4 D4 A,4 | G,8 ^F,4 | G,4 (C2 B,2) A,4 | !fermata!B,4 z4 A,4 | A,4 B,4 (G,2 C2) | %6
 A,4 D4 C4 | D2 C2 (B,2 !fermata!A,2) (3(^F,2 G,2 A,2) | B,4 G,4 ^F,4 | G,4- G,4 ^F,4 | %10
 G,4 G,4 A,4 | !fermata!B,4 z4 B,4 | A,4 A,4 C4 | A,4 E,4 (A,2 G,2) | %14
 (F,2 E,2) (D,2 !fermata!C,2) C4 | A,4 B,4 A,4 | (B,2 C2) B,4 C4 | B,4 B,4 (^F,3 A,) | %18
 !fermata!B,4 z4 B,4 | (A,2 G,2) F,4 E,4 | A,4 B,4 B,4 | (B,4 A,4 G,4) | !fermata!^F,4 z4 z4 |] %23
V:4
 D,4 | G,,4 B,,4 ^F,,4 | G,,4 B,,4 D,4 | _E,4 C,4 D,4 | !fermata!G,4 z4 D,4 | F,4 B,,4 C,4 | %6
 D,4 B,,4 C,4 | F,,4 !fermata!F,,4 D,4 | G,,4 B,,4 D,4 | (G,4 _E,4) C,4 | B,,4 _E,4 D,4 | %11
 !fermata!G,4 z4 B,,4 | F,4 D,4 (!courtesy!=E,2 C,2) | D,4 C,4 A,,4 | B,,4 !fermata!F,,4 A,,4 | %15
 D,4 G,4 F,4 | _E,4 D,4 F,4 | D,2 C,2 B,,4 D,4 | !fermata!G,4 z4 G,,4 | A,,4 B,,4 C,4 | %20
 D,4 G,,4 G,4 | C,12 | !fermata!D,4 z4 z4 |] %23

